picto/motorcycle-left.svg

<svg class="color-immutable" width="24" height="24" viewBox="0 0 24 24" fill="none" xmlns="http://www.w3.org/2000/svg"><g clip-path="url(#a)"><path d="M0 22.5v-21C0 .675.675 0 1.5 0h21c.825 0 1.5.675 1.5 1.5v21c0 .825-.675 1.5-1.5 1.5h-21C.675 24 0 23.325 0 22.5Z" fill="#2D327D"/><path d="m6.522 12.223.003.755a.298.298 0 0 0 .3.297h.102l.514-1.349h-.616a.3.3 0 0 0-.303.297Z" fill="#fff"/><path d="M3 18.375a2.625 2.625 0 1 0 3.834-2.33l1.97-5.17h1.809a.338.338 0 1 0 0-.675H8.626v.001a.3.3 0 0 0-.282.192l-2.071 5.438A2.625 2.625 0 0 0 3 18.375Zm1.125 0a1.5 1.5 0 0 1 1.742-1.479l-.523 1.372a.3.3 0 0 0 .561.214l.523-1.372a1.5 1.5 0 1 1-2.303 1.265ZM15.75 13.35c0-.373.302-.675.675-.675h3.825v.675h-4.5Z" fill="#fff"/><path d="M7.531 15.059a3.817 3.817 0 0 1 1.904 2.984v.021a.61.61 0 0 0 .611.611h5.721a2.625 2.625 0 0 0 2.769 2.32 2.634 2.634 0 0 0 2.457-2.432 2.625 2.625 0 0 0-5.225-.488h-1.205a3.824 3.824 0 0 1 3.812-3.525h1.875v-.9h-6.825a.879.879 0 0 1-.555-.2l-1.774-1.386a.668.668 0 0 0-.411-.139H8.726l-1.195 3.134Zm9.374 3.617h1.47a.3.3 0 1 0-.001-.601h-1.469a1.5 1.5 0 0 1 1.473-1.2 1.511 1.511 0 0 1 1.495 1.418 1.5 1.5 0 0 1-2.968.383Z" fill="#fff"/></g><defs><clipPath id="a"><path fill="#fff" d="M0 0h24v24H0z"/></clipPath></defs></svg>

<svg class="color-immutable" width="24" height="24" viewBox="0 0 24 24" fill="none" xmlns="http://www.w3.org/2000/svg"><path d="M0 22.5V1.5C0 0.675 0.675 0 1.5 0H22.5C23.325 0 24 0.675 24 1.5V22.5C24 23.325 23.325 24 22.5 24H1.5C0.675 24 0 23.325 0 22.5Z" fill="#2D327D"/><path d="M6.52197 12.223L6.52497 12.978C6.52297 13.143 6.65997 13.273 6.82497 13.275H6.92697L7.44097 11.926H6.82497C6.65997 11.925 6.52297 12.058 6.52197 12.223Z" fill="white"/><path d="M3 18.375C3 19.825 4.175 21 5.625 21C7.075 21 8.25 19.825 8.25 18.375C8.25 17.361 7.675 16.482 6.834 16.045L8.804 10.875H10.613C10.8 10.875 10.951 10.724 10.951 10.537C10.951 10.351 10.8 10.2 10.613 10.2H8.626V10.201C8.505 10.201 8.39 10.273 8.344 10.393L6.273 15.831C6.066 15.778 5.849 15.75 5.625 15.75C4.175 15.75 3 16.925 3 18.375ZM4.125 18.375C4.125 17.546 4.796 16.875 5.625 16.875C5.708 16.875 5.788 16.883 5.867 16.896L5.344 18.268C5.285 18.423 5.363 18.596 5.518 18.655C5.553 18.668 5.589 18.675 5.625 18.675C5.746 18.675 5.86 18.601 5.905 18.482L6.428 17.11C6.847 17.376 7.125 17.843 7.125 18.376C7.125 19.205 6.454 19.876 5.625 19.876C4.796 19.876 4.125 19.204 4.125 18.375Z" fill="white"/><path d="M15.75 13.35C15.75 12.977 16.052 12.675 16.425 12.675H20.25V13.35H15.75Z" fill="white"/><path d="M7.53101 15.059C8.58801 15.667 9.32601 16.764 9.43501 18.043V18.064C9.43501 18.402 9.70901 18.675 10.046 18.675H14.024H15.767C15.922 20.035 17.116 21.08 18.536 20.995C19.84 20.917 20.902 19.866 20.993 18.563C21.1 17.028 19.887 15.75 18.375 15.75C17.027 15.75 15.917 16.767 15.768 18.075H14.563C14.716 16.103 16.363 14.55 18.375 14.55H20.25V13.65C20.25 13.65 14.956 13.65 13.425 13.65C13.246 13.65 13.052 13.595 12.87 13.45C12.73 13.34 11.588 12.449 11.096 12.064C10.982 11.976 10.84 11.925 10.685 11.925H8.72601L7.53101 15.059ZM16.905 18.676H18.375C18.479 18.676 18.575 18.623 18.63 18.534C18.717 18.392 18.673 18.208 18.532 18.121C18.484 18.091 18.429 18.076 18.374 18.075H16.905C17.044 17.389 17.651 16.873 18.378 16.875C19.165 16.877 19.831 17.507 19.873 18.293C19.919 19.159 19.231 19.875 18.375 19.875C17.649 19.875 17.044 19.36 16.905 18.676Z" fill="white"/></svg>
